X:1
T: Tam's Hunting Horn
C:I. Munro
R:Jig
Q:180
K:D
M:6/8
L:1/16
A2|:d2f2A2 d2f2A2|d4f2 a4a2|b4b2 a4f2|e6-e4A2|
c2e2A2 c2e2A2|c4e2 g4g2|a4g2 f4e2|1f6-f4 A2:|2d6-d4 e2|
|:c2A2A2 e4c2|d2A2A2 f4d2|g2d2B2 d2g2b2|a6-a4a2|
a2f2d2 a2f2d2|A4d2 d2e2d2|c4A2 A2c2e2|1d6-d4e2:|2d6-d4||
